!!!!SEGMENT: pl-sa--557-a-ix-37_elsner-jozef--mazur-z-opery-lokietka.krn
!!!cenid: 18xx:362
!!!COM: Elsner, Józef
!!!COM-rism: pe30000957
!!!CDT: 1769/06/01-1854/04/18
!!!CNT: Polish
!!!OTL: Mazur z opery Łokietka
!!!PDT:
!!!AGN: Secular; Mazurka
!!!SMS-siglum: PL-SA
!!!SMS-shelfmark: 557/A IX 37
!!!NIFC-rismID: 1001065426
!!!URL-scan: http://bc.bdsandomierz.pl/dlibra/publication/1313/edition/1281/content
!!!ONB-nifc: UWAGA: na odwrocie szkice innych utworów
!!!SMS-variant:
!!!SMS-altvar:
**kern	**kern	**dynam
*part1	*part1	*part1
*staff2	*staff1	*
*I"Piano	*I"Piano	*
*I'P-no	*I'P-no	*
*group1	*group1	*
*clefF4	*clefG2	*
*k[]	*k[]	*
*M3/8	*M3/8	*
=1	=1	=1
!	!LO:TX:a:B:t=Mazur z Opery Łokietka przez J. Elsnera.	!
!LO:TX:a:t=P:problem:4\right:global	!LO:TX:a:t=P:problem:4\right:global	!
!	!LO:TX:a:t=P:problem:metrum 3/4 ale wszystko zapisane na 3/8	!
4.G\ 4.d	4.r	.
=2	=2	=2
4.G\ 4.d	4.r	.
=3	=3	=3
!LO:TX:a:t=P:problem:8\right:global	!	!
8G\ 8d	4.r	.
4G\ 4d	.	.
=4	=4	=4
8G\ 8d	4.r	.
4G\ 4d	.	.
=5	=5	=5
*tremolo	*	*
*tremolo	*	*
!	!LO:TX:a:t=P:problem:16\right:global	!
8G\ 8dL	16ff\LL	.
.	16ee\JJ	.
!	!LO:TX:a:t=P:problem:8\right:global	!
8G\ 8d	8ff\L	.
8G\ 8dJ	8gg\J	.
=6	=6	=6
!	!LO:TUP:a	!
8G\ 8c 8eL	24ee\LL	.
.	24gg\	.
.	24cc\JJ	.
8G\ 8c 8e	8.cc\L	.
8G\ 8c 8eJ	.	.
.	16ee\Jk	.
=7	=7	=7
8G\ 8d 8fL	16cc#X/LL	.
.	16dd/	.
8G\ 8d 8f	16ff/	.
.	16g/	.
8G\ 8d 8fJ	16a/	.
.	16b/JJ	.
=8	=8	=8
*tremolo	*	*
8G\ 8c 8eL	16dd\LL	.
.	16cc\JJ	.
8G\ 8c 8e	4cc\	.
8G\ 8c 8eJ	.	.
=9	=9	=9
8G\ 8d 8fL	16cc#X/LL	.
.	16dd/	.
8G\ 8d 8f	16ff/	.
.	16g/	.
8G\ 8d 8fJ	16a/	.
.	16b/JJ	.
=10	=10	=10
8G\ 8c 8eL	16cc\LL	.
.	16ee\	.
8G\ 8c 8e	16gg\	.
.	16ccc\	.
8G\ 8c 8eJ	16bb\	.
.	16aa\JJ	.
=11	=11	=11
8G\ 8d 8fL	16gg\LL	.
.	16ff#X\	.
8G\ 8d 8f	16ffn\	.
.	16ee\	.
8G\ 8d 8fJ	16ff\	.
.	16dd\JJ	.
=12	=12	=12
!	!LO:TUP:a	!
8G\ 8c 8eL	24dd#X\LL	.
.	24ee\	.
.	24gg\JJ	.
8G\ 8c 8e	4cc\	.
8G\ 8c 8eJ	.	.
!LO:LB:g=original	!LO:LB:g=original	!
=13	=13	=13
8G\ 8d 8fL	16cc#X/LL	.
.	16dd/	.
8G\ 8d 8f	16ff/	.
.	16g/	.
8G\ 8d 8fJ	16a/	.
.	16b/JJ	.
=14	=14	=14
8G\ 8c 8eL	16cc\LL	.
.	16ee\	.
8G\ 8c 8e	16gg\	.
.	16ccc\	.
8G\ 8c 8eJ	16bb\	.
.	16aa\JJ	.
=15	=15	=15
8G\ 8B 8dL	16gg\LL	.
.	16ff#X\	.
8G\ 8B 8d	16ffn\	.
.	16ee\	.
8G\ 8B 8dJ	16ff\	.
.	16dd\JJ	.
*Xtremolo	*	*
=16	=16	=16
!	!LO:TUP:a	!
8E\L 8G 8c	24dd#X\LL	.
.	24ee\	.
.	24gg\JJ	.
8C\J	4cc\	.
8r	.	.
=17!|:	=17!|:	=17!|:
8C\L 8F 8A 8c	16ff\LL 16aa	.
.	16ff\JJ 16aa	.
8C\ 8F 8A 8c	8.aa\L 8.ccc	.
8C\J 8F 8A 8c	.	.
.	16ff\Jk 16aa	.
=18	=18	=18
8C\L 8E 8G 8c	16gg\LL	.
.	16ccc\JJ	.
8C\ 8E 8G 8c	4eee\	.
8C\J 8E 8G 8c	.	.
=19	=19	=19
*tremolo	*	*
8G\ 8d 8fL	16ccc#X\LL	.
.	16ddd\	.
8G\ 8d 8f	16fff\	.
.	16gg\	.
8G\ 8d 8fJ	16aa\	.
.	16bb\JJ	.
=20	=20	=20
8G\ 8c 8eL	16ddd\LL	.
.	16ccc\JJ	.
8G\ 8c 8e	4ccc\	.
8G\ 8c 8eJ	.	.
*Xtremolo	*	*
!LO:TX:a:t=[segno]	!LO:TX:a:t=[segno]	!
=21:|!	=21:|!	=21:|!
16G\LL 16c 16e	4.r	.
16G\JJ 16c 16e	.	.
8G\L 8c 8e	.	.
8G\J 8c 8e	.	.
=22	=22	=22
*tremolo	*	*
8G\ 8c 8eL	4.r	.
8G\ 8c 8e	.	.
8G\ 8c 8eJ	.	.
*Xtremolo	*	*
!LO:LB:g=original	!LO:LB:g=original	!
=23	=23	=23
16G\LL 16c 16e	4.r	.
16G\JJ 16c 16e	.	.
8G\L 8c 8e	.	.
8G\J 8c 8e	.	.
=24	=24	=24
*tremolo	*	*
8G\ 8c 8eL	4.r	.
8G\ 8c 8e	.	.
8G\ 8c 8eJ	.	.
*Xtremolo	*	*
=25	=25	=25
8C\L 8E 8G	16ee\LL	.
.	16dd\J	.
8C\ 8E 8G	8ee\	.
8C\J 8E 8G	8cc\J	.
=26	=26	=26
8GG\L 8BB 8D 8G	16b/LL	.
.	16a/J	.
8GG\ 8BB 8D 8G	8b/	.
8GG\J 8BB 8D 8G	8g/J	.
=27	=27	=27
8GG\L 8BB 8D 8G	16b\LL 16dd	.
.	16cc\J 16ee	.
8GG\ 8BB 8D 8G	8dd\ 8ff	.
8GG\J 8BB 8D 8G	8b\J 8dd	.
=28	=28	=28
*tremolo	*	*
8C\ 8E 8GL	4ee\ 4gg	.
8C\ 8E 8G	.	.
8C\ 8E 8GJ	8cc\ 8ee	.
=29	=29	=29
8C\ 8E 8GL	16ee\LL	.
.	16dd\J	.
8C\ 8E 8G	8ee\	.
8C\ 8E 8GJ	8cc\J	.
=30	=30	=30
8GG\ 8BB 8D 8GL	16b/LL	.
.	16a/J	.
8GG\ 8BB 8D 8G	8b/	.
8GG\ 8BB 8D 8GJ	8g/J	.
=31	=31	=31
8GG\ 8BB 8D 8GL	16b\LL	.
.	16cc\J	.
8GG\ 8BB 8D 8G	8dd\	.
8GG\ 8BB 8D 8GJ	8ee\J	.
=32	=32	=32
8C\ 8E 8GL	4cc\	.
8C\ 8E 8G	.	.
8C\ 8E 8GJ	8cc\	.
!LO:LB:g=original	!LO:LB:g=original	!
=33	=33	=33
8GG\ 8BB 8D 8GL	16ff\LL	.
.	16ee\J	.
8GG\ 8BB 8D 8G	8ff\	.
8GG\ 8BB 8D 8GJ	8gg\J	.
=34	=34	=34
!	!LO:TUP:a	!
8C\ 8E 8GL	24ee\LL	.
.	24gg\	.
.	24b\JJ	.
8C\ 8E 8G	8.cc\L	.
8C\ 8E 8GJ	.	.
.	16ee\Jk	.
=35	=35	=35
8GG\ 8BB 8D 8GL	16cc#X\LL	.
.	16dd\	.
8GG\ 8BB 8D 8G	16ff\	.
.	16g\	.
8GG\ 8BB 8D 8GJ	16a\	.
.	16b\JJ	.
=36	=36	=36
8C\ 8E 8GL	16dd\LL	.
.	16cc\JJ	.
8C\ 8E 8G	4cc\	.
8C\ 8E 8GJ	.	.
=37	=37	=37
8GG\ 8BB 8D 8GL	16cc#X\LL	.
.	16dd\	.
8GG\ 8BB 8D 8G	16ff\	.
.	16g\	.
8GG\ 8BB 8D 8GJ	16a\	.
.	16b\JJ	.
=38	=38	=38
8C\ 8E 8GL	16cc\LL	.
.	16ee\	.
8C\ 8E 8G	16gg\	.
.	16ccc\	.
8C\ 8E 8GJ	16bb\	.
.	16aa\JJ	.
=39	=39	=39
8GG\ 8BB 8D 8GL	16gg\LL	.
.	16ff#X\	.
8GG\ 8BB 8D 8G	16ffn\	.
.	16ee\	.
8GG\ 8BB 8D 8GJ	16ff\	.
.	16dd\JJ	.
=40	=40	=40
!	!LO:TUP:a	!
8C\ 8E 8GL	24dd#X\LL	.
.	24ee\	.
.	24gg\JJ	.
8C\ 8E 8G	4cc'\	.
8C\ 8E 8GJ	.	.
=41	=41	=41
8GG\ 8BB 8D 8GL	16cc#X\LL	.
.	16dd\	.
8GG\ 8BB 8D 8G	16ff\	.
.	16g\	.
8GG\ 8BB 8D 8GJ	16a\	.
.	16b\JJ	.
=42	=42	=42
8C\ 8E 8GL	16cc\LL	.
.	16ee\	.
8C\ 8E 8G	16gg\	.
.	16ccc\	.
8C\ 8E 8GJ	16bb\	.
.	16aa\JJ	.
*Xtremolo	*	*
!LO:LB:g=original	!LO:LB:g=original	!
=43	=43	=43
*tremolo	*	*
8GG\ 8BB 8D 8GL	16gg\LL	.
.	16ff#X\	.
8GG\ 8BB 8D 8G	16ffn\	.
.	16ee\	.
8GG\ 8BB 8D 8GJ	16ff\	.
.	16dd\JJ	.
=44	=44	=44
!	!LO:TUP:a	!
8C\ 8GL	24dd#X\LL	.
.	24ee\	.
.	24gg\JJ	.
8C\ 8G	4cc\	.
8C\ 8GJ	.	.
*Xtremolo	*	*
=45!|:	=45!|:	=45!|:
*tremolo	*	*
!	!	!LO:DY:b:t=f.
8C\ 8F 8A 8cL	16ff\LL 16aa	f
.	16ff\JJ 16aa	.
8C\ 8F 8A 8c	8.aa\L 8.ccc	.
8C\ 8F 8A 8cJ	.	.
.	16ff\Jk 16aa	.
=46	=46	=46
8C\ 8E 8G 8cL	16gg\LL	.
.	16ccc\JJ	.
8C\ 8E 8G 8c	4eee\	.
8C\ 8E 8G 8cJ	.	.
*Xtremolo	*	*
=47	=47	=47
8GG\L	16ccc#X\LL	.
.	16ddd\	.
8GG\ 8BB 8D 8G	16fff\	.
.	16gg\	.
8GG\J 8BB 8D 8G	16aa\	.
.	16bb\JJ	.
=48	=48	=48
*tremolo	*	*
8C\ 8E 8G 8cL	16ddd\LL	.
.	16ccc\JJ	.
8C\ 8E 8G 8c	4ccc\	.
8C\ 8E 8G 8cJ	.	.
*Xtremolo	*	*
*Xtremolo	*	*
=49:|!	=49:|!	=49:|!
!	!LO:TX:b:t=DS.	!
4.ryy	4.ryy	.
!LO:TX:b:t=[segno]	!LO:TX:a:t=[segno]	!
==	==	==
*-	*-	*-
!!!system-decoration: [(g1)]
!!!ENC:Anna Matuszewska
!!!END:2020-11-28
!!!ENC: Marcin Jachim
!!!END: 2020-06-10
